X: 1
T: the Hare in the Corn
O: as played by Planxty
S: as played by Planxty
N: also in G
N: printed MS with "Airlie p.2 of 2" handwritten
M: 6/8
L: 1/8
K: D
A \
| "D"F2A AFA | "G"BdB "D"AFE | "D"F2F "A7"EDE | "D"F2D    D2E \
| "D"F2A AFA | "G"BdB "D"AFE | "G"Bcd "A7"ecA | "D"ded    d2 |]
e \
| "D"f2f fed | "A7"g2e   ede | "D"f2f     fed | "D"a2a "G"bag \
| "D"f2f fed | "A7"g2e   ede | "D"ABd "A7"ecA | "D"ded    d2 |]
